X:47
T:Sonata in G minor - Sarabanda
C:Corelli, A.
M:3/4
L:1/8
Q:1/4=52
K:Gmin
|:D2|g4 fg|a2 gf e2|f4 ga|b4 g2|
a4 bg|f2 ed c2|d2 ef ga|g4:|

